X:1
T:Title
L:1/8
Q:1/4=100
M:4/4
K:Eb
V:1 treble nm="Grand Piano"
V:1
 G4- GGGF | G8 | A4- AAAG | A8 | F4- FFFE | F8 | G4- GFEF | G8 | G4- GGGF | G8 | A4- AAAG | A8 | %12
w: ????~???? * * * *||||||||||||
 F4- FFFE | F8 | G4- GFEF | G8 | e4- edcB | A4- AFAc | d4- dcBA | G4- GEGB | c4- cBAG | F8 | %22
w: ||||||||||
 G4- GFEF | G8 | e4- edcB | A4- AFAc | d4- dcBA | G4- GEGB | c4- cBAG | F8 | G4- GFED | C8 |] %32
w: ||||||||||

